X: 23
T:Zinzan's Maggot
M:4/4
L:1/4
S:Wright 1713
O:6
Z:p
K:G
d/c/|BGBDBD|FDFAdF|EGEAcA|FAGFDG/A/|BGBDdD|FDFAdF|EGEFAF|(G3G2):||
